X:5080
T:Michaelmas Night
M:4/4
R:Hornpipe
L:1/8
Q:180
C:Aidan Crossey
K:D
|:FDFA BGBd|cAce fedc|Beef dfed|ceed cAGE|
FDFA BGBd|cAce fedc|Beef dfed|cABc dAGE:||
|:DFAd BGBd|DFAF EFGA|DFAd BGBd|cAGE CEAF|
DFAd BGBd|DFAF EFGA|DFAd BGBd|cABc dAGE:||
